assets/icons/ic-time.svg

<svg width="20" height="20" viewBox="0 0 20 20" fill="none" xmlns="http://www.w3.org/2000/svg">
<path d="M10 0C8.02219 0 6.08879 0.58649 4.4443 1.6853C2.79981 2.78412 1.51809 4.3459 0.761209 6.17317C0.00433284 8.00043 -0.193701 10.0111 0.192152 11.9509C0.578004 13.8907 1.53041 15.6725 2.92894 17.0711C4.32746 18.4696 6.10929 19.422 8.0491 19.8079C9.98891 20.1937 11.9996 19.9957 13.8268 19.2388C15.6541 18.4819 17.2159 17.2002 18.3147 15.5557C19.4135 13.9112 20 11.9778 20 10C20 8.68678 19.7413 7.38642 19.2388 6.17317C18.7363 4.95991 17.9997 3.85752 17.0711 2.92893C16.1425 2.00035 15.0401 1.26375 13.8268 0.761205C12.6136 0.258658 11.3132 0 10 0ZM10 18C8.41775 18 6.87104 17.5308 5.55544 16.6518C4.23985 15.7727 3.21447 14.5233 2.60897 13.0615C2.00347 11.5997 1.84504 9.99113 2.15372 8.43928C2.4624 6.88743 3.22433 5.46197 4.34315 4.34315C5.46197 3.22433 6.88743 2.4624 8.43928 2.15372C9.99113 1.84504 11.5997 2.00346 13.0615 2.60896C14.5233 3.21447 15.7727 4.23984 16.6518 5.55544C17.5308 6.87103 18 8.41775 18 10C18 12.1217 17.1572 14.1566 15.6569 15.6569C14.1566 17.1571 12.1217 18 10 18ZM10 4C9.73479 4 9.48043 4.10536 9.2929 4.29289C9.10536 4.48043 9 4.73478 9 5V9.42L6.9 10.63C6.70736 10.7392 6.5564 10.9092 6.47078 11.1134C6.38517 11.3176 6.36975 11.5444 6.42695 11.7583C6.48414 11.9722 6.61072 12.1611 6.78682 12.2953C6.96292 12.4296 7.17859 12.5015 7.4 12.5C7.57518 12.5012 7.7476 12.4564 7.9 12.37L10.5 10.87L10.59 10.78L10.75 10.65C10.7891 10.6005 10.8226 10.5468 10.85 10.49C10.8826 10.4363 10.9094 10.3793 10.93 10.32C10.9572 10.2564 10.9741 10.1889 10.98 10.12C10.98 10.12 11 10 11 10V5C11 4.73478 10.8946 4.48043 10.7071 4.29289C10.5196 4.10536 10.2652 4 10 4Z" fill="#37352F"/>
</svg>

<svg xmlns="http://www.w3.org/2000/svg" width="20" height="20" fill="none" xmlns:v="https://vecta.io/nano"><path d="M10 0A10 10 0 0 0 .761 6.173a10 10 0 0 0-.569 5.778 10 10 0 0 0 7.857 7.857 10 10 0 0 0 10.266-4.252 10 10 0 0 0 .924-9.383A10 10 0 0 0 13.827.761 10 10 0 0 0 10 0zm0 18a8 8 0 0 1-7.391-4.938 8 8 0 0 1 1.734-8.718 8 8 0 0 1 8.718-1.734A8 8 0 0 1 18 10a8 8 0 0 1-8 8zm0-14a1 1 0 0 0-1 1v4.42l-2.1 1.21a1 1 0 0 0-.473 1.128 1 1 0 0 0 .973.742 1 1 0 0 0 .5-.13l2.6-1.5.09-.09.16-.13c.039-.05.073-.103.1-.16a.89.89 0 0 0 .08-.17.65.65 0 0 0 .05-.2L11 10V5a1 1 0 0 0-1-1z" fill="#37352f"/></svg>
